X: 3
T: Haapavesi Harmony II
M: 3/4
L: 1/8
R: waltz
K:D
z z2|:"D"D4 D2|F4 F2|"Em7"G4 F2|"A"E4A,2|"D"D4 D2|F4 F2|"Em7"G4 E2|1"D"D4 A,2:|[2 "D"D3 ||
|:E FG |"D"A2 AG FD|"G"G3 F2 G| "A"EA, A,G FG|
E2 A,2 FG|"D"A2 AG FD|"G"G3 F2G|"A"E2 EF E/D/C| "D"D3:|]
%%scale .5
%%text 5/18/12 For use only by Roaring Jelly members

%%pageheight 11.0in
%%pagewidth 8.5in
%%topmargin .3cm
%%botmargin .3cm
%%newpage
%%topspace 0cm
%%musicspace 0cm
%%subtitlespace 0cm
L:1/8
%%titlefont Times-Roman 18
%%gchordfont Helvetica-Narrow-Bold 12.0
%%setfont-1 Times-Roman 12
%%scale .7
%%textfont Times-Roman 18
%%leftmargin 2.1cm
%%rightmargin 2.6cm

%%leftmargin .4cm
%%rightmargin 1.1cm
